32x32/apps/lutris_x4-foundations.svg

<svg width="32" height="32" version="1.1" xmlns="http://www.w3.org/2000/svg">
 <path d="m7 6h7l3 4.5 4-4.5h9l-9 11 6 11h-9l-3-5-4 5h-9l10-11.5z" style="opacity:.2"/>
 <path d="m7 5h7l3 4.5 4-4.5h9l-9 11 6 11h-9l-3-5-4 5h-9l10-11.5z" style="fill:#ccab3c"/>
 <path d="m7 5 0.4765625 1h6.5234375l3 4.5 4-4.5h8.181641l0.818359-1h-9l-4 4.5-3-4.5h-7zm4.691406 10.853516-9.691406 11.146484h0.8691406l9.1308594-10.5-0.308594-0.646484zm9.636719 0.746093-0.328125 0.400391 5.455078 10h0.544922l-5.671875-10.400391z" style="fill:#f4f4f7;opacity:.1"/>
 <circle cx="24.000031" cy="23" r="8" style="fill:#498391"/>
 <path d="m31.979031 23.424a8 8 0 0 1-7.979 7.576 8 8 0 0 1-7.979-7.424 8 8 0 0 0-0.021 0.424 8 8 0 0 0 8 8 8 8 0 0 0 8-8 8 8 0 0 0-0.02148-0.57617z" style="opacity:.3"/>
 <path d="m22 20v4h3v3h1v-7h-1v3h-2v-3z" style="fill:#f9f9f9"/>
</svg>

<svg width="32" height="32" xmlns="http://www.w3.org/2000/svg"><path d="M7 6h7l3 4.5L21 6h9l-9 11 6 11h-9l-3-5-4 5H2l10-11.5z" style="opacity:.2"/><path d="M7 5h7l3 4.5L21 5h9l-9 11 6 11h-9l-3-5-4 5H2l10-11.5z" style="fill:#ccab3c"/><path d="m7 5 .477 1H14l3 4.5L21 6h8.182L30 5h-9l-4 4.5L14 5H7zm4.691 10.854L2 27h.87L12 16.5l-.309-.646zm9.637.746L21 17l5.455 10H27l-5.672-10.4z" style="fill:#f4f4f7;opacity:.1"/><circle cx="24" cy="23" r="8" style="fill:#498391"/><path d="M31.979 23.424A8 8 0 0 1 24 31a8 8 0 0 1-7.979-7.424A8 8 0 0 0 16 24a8 8 0 0 0 8 8 8 8 0 0 0 8-8 8 8 0 0 0-.021-.576z" style="opacity:.3"/><path d="M22 20v4h3v3h1v-7h-1v3h-2v-3z" style="fill:#f9f9f9"/></svg>
